outputs/icons/general/contacts_outline_round.svg

<svg xmlns="http://www.w3.org/2000/svg" width="1200" height="1200" fill="none"><g fill="#000" clip-path="url(#a)"><path d="M650.005 641.51c57.58 0 104.215-46.64 104.215-104.22s-46.635-104.218-104.215-104.218c-57.585 0-104.22 46.638-104.22 104.218s46.635 104.22 104.22 104.22m0 52.11c-69.57 0-208.44 34.915-208.44 104.22v26.055c0 14.33 11.724 26.055 26.055 26.055h364.765c14.33 0 26.055-11.725 26.055-26.055V797.84c0-69.305-138.87-104.22-208.435-104.22"/><path fill-rule="evenodd" d="M950 200H300v800h650zM300 100c-55.228 0-100 44.772-100 100v800c0 55.23 44.772 100 100 100h650c55.23 0 100-44.77 100-100V200c0-55.228-44.77-100-100-100z"/><path d="M150 287.5c0-20.71 16.79-37.5 37.5-37.5h125c20.71 0 37.5 16.79 37.5 37.5S333.21 325 312.5 325h-125c-20.71 0-37.5-16.79-37.5-37.5M150 487.5c0-20.711 16.79-37.5 37.5-37.5h125c20.71 0 37.5 16.789 37.5 37.5S333.21 525 312.5 525h-125c-20.71 0-37.5-16.79-37.5-37.5M150 687.5c0-20.71 16.79-37.5 37.5-37.5h125c20.71 0 37.5 16.79 37.5 37.5S333.21 725 312.5 725h-125c-20.71 0-37.5-16.79-37.5-37.5M150 887.5c0-20.71 16.79-37.5 37.5-37.5h125c20.71 0 37.5 16.79 37.5 37.5S333.21 925 312.5 925h-125c-20.71 0-37.5-16.79-37.5-37.5"/></g><defs><clipPath id="a"><path fill="#fff" d="M0 0h1200v1200H0z"/></clipPath></defs></svg>

<svg width="1200" height="1200" viewBox="0 0 1200 1200" fill="none" xmlns="http://www.w3.org/2000/svg"><g clip-path="url(#clip0_8207_55)"><path d="M650.005 641.51C707.585 641.51 754.22 594.87 754.22 537.29C754.22 479.71 707.585 433.072 650.005 433.072C592.42 433.072 545.785 479.71 545.785 537.29C545.785 594.87 592.42 641.51 650.005 641.51ZM650.005 693.62C580.435 693.62 441.565 728.535 441.565 797.84V823.895C441.565 838.225 453.289 849.95 467.62 849.95H832.385C846.715 849.95 858.44 838.225 858.44 823.895V797.84C858.44 728.535 719.57 693.62 650.005 693.62Z" fill="black"/><path fill-rule="evenodd" d="M950 200H300V1000H950V200ZM300 100C244.772 100 200 144.772 200 200V1000C200 1055.23 244.772 1100 300 1100H950C1005.23 1100 1050 1055.23 1050 1000V200C1050 144.772 1005.23 100 950 100H300Z" fill="black"/><path d="M150 287.5C150 266.79 166.79 250 187.5 250H312.5C333.21 250 350 266.79 350 287.5C350 308.21 333.21 325 312.5 325H187.5C166.79 325 150 308.21 150 287.5Z" fill="black"/><path d="M150 487.5C150 466.789 166.79 450 187.5 450H312.5C333.21 450 350 466.789 350 487.5C350 508.21 333.21 525 312.5 525H187.5C166.79 525 150 508.21 150 487.5Z" fill="black"/><path d="M150 687.5C150 666.79 166.79 650 187.5 650H312.5C333.21 650 350 666.79 350 687.5C350 708.21 333.21 725 312.5 725H187.5C166.79 725 150 708.21 150 687.5Z" fill="black"/><path d="M150 887.5C150 866.79 166.79 850 187.5 850H312.5C333.21 850 350 866.79 350 887.5C350 908.21 333.21 925 312.5 925H187.5C166.79 925 150 908.21 150 887.5Z" fill="black"/></g><defs><clipPath id="clip0_8207_55"><path width="24" fill="white" d="M0 0H1200V1200H0V0z"/></clipPath></defs></svg>
